X: 46
T:Moonshine Kate
R: Reel
C:Chris Haigh
M:4/4
L:1/8
K:D Major
S:https://tunearch.org/wiki/Moonshine_Kate
DE|:"D" F2 FE F  A2 A | "G" BAGF E2 (F2 | "D" F)EFG FEDF |"A" DE2 F E2 DE |
"D" FEFE F A2 A |"G" BAGF E2 DE |1 "A" FEFG FDED |"D" CD2 E D2DE :|2 "A" FEFG F C3|"D" D3 E D2 dc |]
|: "D" d2FG A2 dc |"G" d2FG "A" Acd e| "D" fafe dBAF | "A" DE2 F E2 DE |
"D" F2 FE F A2 A |"G" BAGF E2 (F2 | "A" F)EFG FDEC |1 "D" D3 E D2  dc :|2  "D" D3 E D4|]

